source/icons/logo-l.svg

<svg width="202" height="60" viewBox="0 0 202 60" fill="none" xmlns="http://www.w3.org/2000/svg">
<g clip-path="url(#clip0_2403_995)">
<path d="M59.8825 24.2098C58.1585 20.0433 55.3821 16.4052 51.83 13.6582C48.2778 10.9111 44.074 9.15109 39.6374 8.55344C35.2008 7.95579 30.6864 8.54141 26.5441 10.2519C22.4017 11.9624 18.7762 14.7381 16.0287 18.3023C13.2812 21.8666 11.5077 26.0948 10.885 30.5658C10.2622 35.0368 10.812 39.5943 12.4795 43.7842C14.147 47.9741 16.874 51.65 20.3887 54.4457C23.9034 57.2413 28.083 59.059 32.5111 59.7176C31.9311 57.6093 31.3411 55.2791 30.8211 52.8077C32.3339 53.7975 33.9262 54.658 35.5813 55.38C35.5813 55.38 35.7013 57.5588 35.8613 59.9899C37.6496 60.021 39.4362 59.8621 41.1916 59.5158C41.1462 59.2623 41.1462 59.0027 41.1916 58.7492C41.4816 56.8628 42.2816 53.4634 42.4416 51.2744C43.595 50.1862 44.5734 48.9236 45.3418 47.5319L45.2818 47.9758C44.7317 52.273 43.5817 56.8628 42.8817 58.1338C42.655 58.5546 42.3761 58.9444 42.0516 59.2939C45.6716 58.4373 49.0636 56.7968 51.9924 54.4862C54.9212 52.1755 57.3168 49.25 59.013 45.9125C60.7093 42.5749 61.6656 38.9052 61.8158 35.1577C61.9659 31.4102 61.3062 27.6746 59.8825 24.2098ZM58.4124 28.033C57.9724 28.4667 57.0624 28.7592 56.9123 27.4479C56.7623 26.1365 56.7223 25.2186 56.7223 25.2186C56.7223 25.2186 54.7922 21.7586 54.0722 21.7182C53.3522 21.6779 48.2419 25.2186 46.8918 26.7619C45.7218 28.0632 45.4918 27.9724 45.4918 30.2623C45.4918 31.9872 45.7118 38.5037 45.5918 43.4869L37.4414 45.6759C34.8796 46.4175 32.2744 46.9969 29.641 47.4109L28.6409 41.5299H28.5009L25.9308 28.2448C25.9308 28.2448 22.1206 26.7922 20.7206 26.3988C20.0632 26.1087 19.3372 26.0144 18.6284 26.127C17.9196 26.2396 17.2575 26.5544 16.7204 27.0343C16.1723 27.5183 15.7342 28.1157 15.4356 28.7859C15.1371 29.4561 14.9852 30.1833 14.9903 30.918C15.2017 31.3868 15.3626 31.8772 15.4703 32.3806C15.5203 32.8648 14.2702 32.8144 13.4702 32.8144C12.6702 32.8144 12.5502 31.3618 13.1802 29.657C13.6717 28.3462 14.2809 27.0834 15.0003 25.8843C15.5413 24.8133 16.2392 23.8305 17.0704 22.9691C17.0704 22.9691 17.2104 22.6261 18.3204 22.727C19.4305 22.8278 25.6008 23.1607 25.6008 23.1607L25.6508 20.8709C32.3575 19.9368 39.1216 19.4851 45.8918 19.5192C45.8918 20.1345 45.8918 20.7498 45.8918 21.3652C48.4562 20.1847 51.2175 19.5004 54.0322 19.3477C54.1828 19.3438 54.332 19.3778 54.4664 19.4464C54.6008 19.5151 54.7162 19.6163 54.8022 19.7411C55.1423 20.1749 57.2124 22.7673 57.4524 23.1406C58.1246 24.1097 58.7359 25.1204 59.2825 26.1668C59.0951 26.8293 58.8012 27.4564 58.4124 28.0229V28.033Z" fill="#FDC305"/>
<path d="M56.4628 21.8594C56.9329 22.4647 57.3429 22.9993 57.4629 23.1607C58.1351 24.1298 58.7464 25.1406 59.293 26.1869C59.1027 26.8278 58.8124 27.4339 58.4329 27.9825C57.9929 28.4163 57.0829 28.7088 56.9329 27.3974C56.7829 26.0861 56.7229 25.2186 56.7229 25.2186C56.7229 25.2186 54.7928 21.7586 54.0727 21.7182C53.3527 21.6779 48.2424 25.2186 46.8924 26.7619C45.7223 28.0632 45.4923 27.9724 45.4923 30.2623C45.4923 31.7754 45.6623 36.9704 45.6223 41.5904C47.4324 41.7922 50.0925 42.2966 50.8926 43.4869C50.8926 43.4869 50.6026 36.2441 58.703 40.037C58.703 40.037 58.983 30.1614 70.1635 32.6933C66.3628 28.1922 61.7035 24.5079 56.4628 21.8594Z" fill="#F06351"/>
<path d="M45.9323 19.5192C45.9729 13.9295 45.5043 8.34783 44.5322 2.84465C44.5322 2.84465 44.3822 1.53329 43.6622 2.60255C43.068 3.88085 42.6636 5.24042 42.4621 6.63752C38.1871 6.36084 33.896 6.47563 29.6415 6.9805C28.8214 4.20645 27.4214 2.94553 26.7513 3.27841C26.0813 3.6113 26.0013 6.58709 26.0013 6.58709L25.6713 20.8709C32.3846 19.9359 39.1554 19.4841 45.9323 19.5192Z" fill="#F06351"/>
<path d="M45.3515 47.5319C45.4815 46.4526 45.5515 45.0202 45.5915 43.4364L37.4415 45.6254C34.8809 46.384 32.2758 46.9804 29.6415 47.4109L30.7515 52.4546C30.7515 52.5656 30.7515 52.6765 30.8215 52.7875C32.3342 53.7774 33.9265 54.6378 35.5815 55.3598C38.0002 54.1935 40.3038 52.7986 42.4615 51.1937V51.2542C43.6096 50.1714 44.5845 48.9158 45.3515 47.5319Z" fill="#E55645"/>
<path d="M32.0016 16.3618C31.9516 16.2609 33.0016 17.0477 33.4116 17.2898C33.8216 17.5319 34.0216 17.7135 34.0216 17.885C34.0216 18.0565 33.7616 18.228 33.4016 18.228C33.0416 18.228 32.4816 18.1069 32.4016 17.9657C32.3216 17.8245 33.0016 17.9657 33.3416 17.9657H33.6316C33.0159 17.5114 32.4672 16.9714 32.0016 16.3618Z" fill="black"/>
<path d="M39.502 16.4728C39.502 16.4728 38.502 17.764 38.412 17.8245C38.322 17.885 38.2419 18.1675 38.6019 18.117C39.0152 18.0548 39.4231 17.9604 39.8219 17.8346C39.9319 17.774 39.892 17.6328 39.702 17.653C39.512 17.6732 39.022 17.7034 38.702 17.764L39.5519 16.4829C39.5519 16.4829 39.582 16.3618 39.502 16.4728Z" fill="black"/>
<path d="M36.3617 22.6362C36.8253 22.4302 37.2084 22.0756 37.4517 21.6274C37.7317 20.9617 37.4517 20.7095 37.0117 20.6187C36.4064 20.5073 35.7817 20.6297 35.2617 20.9617C34.8717 21.3349 34.9217 21.6981 35.2617 21.9704C35.5995 22.2376 35.9691 22.4613 36.3617 22.6362Z" fill="black"/>
<path d="M36.0016 23.9072C35.8868 24.136 35.7308 24.3412 35.5416 24.5124C35.2568 24.7436 34.9067 24.8778 34.5416 24.8958C33.991 24.9503 33.4405 24.7916 33.0016 24.4519C32.8 24.333 32.6206 24.1793 32.4716 23.998C32.3715 23.8881 32.2486 23.802 32.1116 23.7458C32.1116 23.7458 32.8616 27.8917 34.6816 28.5575C36.5016 29.2233 36.8416 27.7909 36.8916 27.4075C36.9525 26.2595 36.6666 25.1198 36.0716 24.1392C36.0716 23.8366 36.0516 24.0383 36.0016 23.9072Z" fill="#F06351"/>
<path d="M34.3015 25.0572C33.8335 24.9893 33.384 24.8265 32.9801 24.5786C32.5763 24.3306 32.2263 24.0027 31.9515 23.6147C31.9269 23.5869 31.9133 23.551 31.9133 23.5138C31.9133 23.4766 31.9269 23.4407 31.9515 23.4129C31.9646 23.3995 31.9801 23.3888 31.9973 23.3816C32.0145 23.3743 32.0329 23.3705 32.0515 23.3705C32.0702 23.3705 32.0886 23.3743 32.1058 23.3816C32.1229 23.3888 32.1385 23.3995 32.1515 23.4129C32.399 23.7631 32.7129 24.0603 33.0751 24.2871C33.4374 24.5139 33.8406 24.666 34.2615 24.7344C34.5945 24.7091 34.9168 24.6045 35.2019 24.4292C35.487 24.2538 35.7268 24.0127 35.9015 23.7256L36.0415 23.534L36.1415 23.7559C36.1415 23.7559 36.5215 24.5225 37.1415 24.5629C37.7615 24.6032 38.2015 24.1392 38.7715 23.2616C38.7927 23.2295 38.8257 23.2072 38.8632 23.1996C38.9007 23.1921 38.9397 23.1998 38.9715 23.2212C39.0034 23.2427 39.0254 23.2759 39.0329 23.3138C39.0404 23.3516 39.0327 23.3909 39.0115 23.423C38.3449 24.4116 37.7149 24.8857 37.1215 24.8453C36.8922 24.8147 36.6726 24.7326 36.4788 24.6052C36.285 24.4778 36.1219 24.3082 36.0015 24.1089C35.8059 24.3845 35.5518 24.6127 35.2577 24.7767C34.9636 24.9407 34.6369 25.0365 34.3015 25.0572Z" fill="black"/>
<path d="M36.2616 38.6348C38.3327 38.6348 40.0116 36.9412 40.0116 34.8521C40.0116 32.7629 38.3327 31.0693 36.2616 31.0693C34.1905 31.0693 32.5116 32.7629 32.5116 34.8521C32.5116 36.9412 34.1905 38.6348 36.2616 38.6348Z" fill="#FDC305"/>
<path d="M41.2316 31.7754L38.1016 33.0968L39.2516 27.4176L31.7516 37.2629L34.8816 35.9415L33.7316 41.6308L41.2316 31.7754ZM33.8416 35.6389L38.0016 30.1816L37.1916 34.2165L39.1916 33.3894L35.0016 38.8568L35.8116 34.8218L33.8416 35.6389Z" fill="#111111"/>
<path d="M32.4415 34.156C33.0601 34.156 33.5615 33.6502 33.5615 33.0262C33.5615 32.4023 33.0601 31.8964 32.4415 31.8964C31.823 31.8964 31.3215 32.4023 31.3215 33.0262C31.3215 33.6502 31.823 34.156 32.4415 34.156Z" fill="#111111"/>
<path d="M38.9619 38.2515C39.3982 38.2515 39.7519 37.8947 39.7519 37.4546C39.7519 37.0145 39.3982 36.6577 38.9619 36.6577C38.5256 36.6577 38.1719 37.0145 38.1719 37.4546C38.1719 37.8947 38.5256 38.2515 38.9619 38.2515Z" fill="#111111"/>
<path d="M39.9219 36.0625C40.1152 36.0625 40.2719 35.9045 40.2719 35.7095C40.2719 35.5145 40.1152 35.3564 39.9219 35.3564C39.7286 35.3564 39.5719 35.5145 39.5719 35.7095C39.5719 35.9045 39.7286 36.0625 39.9219 36.0625Z" fill="#111111"/>
<path d="M45.8822 21.345C44.077 22.9865 42.3768 24.7419 40.792 26.6005C39.2133 28.4458 37.4318 30.1041 35.4817 31.5434C35.2617 31.0087 33.8516 30.0101 33.8516 30.0101C33.8516 30.0101 30.7115 27.8413 28.6514 26.1365C27.5377 25.2009 26.4886 24.1898 25.5112 23.1103L23.5111 22.9993C26.3983 27.2534 30.628 30.3963 35.5117 31.9166C36.3717 31.7754 38.7919 30.0303 40.602 28.6079C42.7434 26.7709 44.7489 24.7784 46.6022 22.6463C47.1004 22.0491 47.4867 21.3654 47.7423 20.6288C46.6023 21.0121 45.8822 21.345 45.8822 21.345Z" fill="#F06351"/>
<path d="M65.2227 3.5306L56.7627 13.0531L55.5427 11.0457L63.6927 0L65.2227 3.5306Z" fill="#FDC305"/>
<path d="M62.6531 17.4109L68.1931 13.265L67.4131 9.49226L62.0131 14.3443L62.6531 17.4109Z" fill="#FDC305"/>
<path d="M59.923 49.8016L66.053 53.0094L69.063 50.649L62.373 47.8749L59.923 49.8016Z" fill="#FDC305"/>
<path d="M1.94995 6.02219L5.01995 2.63282L14.31 11.7115L13.09 14.0114L1.94995 6.02219Z" fill="#FDC305"/>
<path d="M7.38003 16.4223L2.68003 13.265L0.280029 17.1688L5.43003 19.5898L7.38003 16.4223Z" fill="#FDC305"/>
<path d="M13.91 53.0094L9.35999 56.3887L12.16 60L16.18 55.9449L13.91 53.0094Z" fill="#FDC305"/>
<path d="M25.9313 28.2448C25.9313 28.2448 22.1211 26.7922 20.721 26.3988C20.0636 26.1087 19.3377 26.0144 18.6289 26.127C17.9201 26.2396 17.258 26.5544 16.7208 27.0343C16.1728 27.5183 15.7346 28.1157 15.4361 28.7859C15.1375 29.4561 14.9856 30.1833 14.9907 30.918C15.2021 31.3868 15.3631 31.8772 15.4708 32.3806C15.5208 32.8648 14.2707 32.8144 13.4707 32.8144C12.6706 32.8144 12.5506 31.3618 13.1807 29.657C13.6722 28.3462 14.2814 27.0834 15.0007 25.8843C9.55047 28.7492 0 35.3665 0 35.3665C2.73182 35.2003 5.47292 35.2814 8.1904 35.6086C13.4407 36.1432 13.1907 40.3194 13.1907 40.3194C15.0373 39.8059 16.9192 39.4316 18.8209 39.1997C20.941 39.0585 21.091 41.3383 21.091 41.3383L21.6211 45.232C22.4259 44.3537 23.3134 43.5564 24.2712 42.8514C25.5057 41.8545 27.0776 41.3839 28.6514 41.54L25.9313 28.2448Z" fill="#F06351"/>
<path d="M85.6642 42.3672C84.634 40.8274 84.1415 38.9854 84.2642 37.1318V29.5662C84.1343 27.6991 84.6194 25.8408 85.6442 24.2804C86.5709 23.0767 88.1542 22.4781 90.3942 22.4849C92.6342 22.4916 94.1509 23.0195 94.9442 24.0686C95.9115 25.3687 96.3836 26.9761 96.2742 28.5979V30.3732H92.1342V28.4465C92.1286 27.9396 92.0852 27.4338 92.0042 26.9334C91.9542 26.5712 91.7893 26.235 91.5342 25.9751C91.3767 25.8389 91.1939 25.7357 90.9965 25.6717C90.799 25.6076 90.5909 25.5838 90.3842 25.6019C90.0874 25.5572 89.7842 25.6059 89.5158 25.7412C89.2474 25.8766 89.0268 26.0921 88.8842 26.3584C88.6213 27.0669 88.5055 27.8222 88.5442 28.5777V38.1809C88.4986 38.9413 88.6322 39.7019 88.9342 40.4001C89.0785 40.652 89.2926 40.8559 89.5502 40.9868C89.8078 41.1176 90.0977 41.1696 90.3842 41.1365C90.6658 41.1767 90.9527 41.1261 91.2041 40.9921C91.4555 40.8581 91.6585 40.6474 91.7842 40.3901C92.0261 39.6803 92.1313 38.9305 92.0942 38.1809V36.1634H96.2342V37.9085C96.3561 39.5542 95.9226 41.1931 95.0042 42.5588C94.1242 43.6685 92.6042 44.2132 90.4442 44.2132C88.2842 44.2132 86.5942 43.6079 85.6642 42.3672Z" fill="#111111"/>
<path d="M101.915 22.7774H106.655L110.655 43.961H106.715L106.005 39.2804H102.685L101.885 43.9307H97.8849L101.915 22.7774ZM105.565 36.6174L104.305 28.1036L103.055 36.6174H105.565Z" fill="#111111"/>
<path d="M113.725 25.965H110.485V22.7774H121.205V25.965H118.005V43.9307H113.715L113.725 25.965Z" fill="#111111"/>
<path d="M129.616 22.7774H137.746V24.9765H132.546V31.967H136.766V34.0551H132.546V41.8124H137.796V43.9307H129.616V22.7774Z" fill="#444444"/>
<path d="M140.157 22.7774H142.157L148.157 36.8292V22.7774H150.597V43.961H148.727L142.727 29.5158V43.9307H140.247L140.157 22.7774Z" fill="#444444"/>
<path d="M153.828 22.7774H161.948V24.9765H156.748V31.967H161.008V34.0551H156.788V41.8124H162.008V43.9307H153.828V22.7774Z" fill="#444444"/>
<path d="M164.358 22.7774H168.578C170.241 22.6424 171.897 23.111 173.248 24.0989C174.248 24.9765 174.738 26.4089 174.738 28.3961C174.738 31.0861 173.875 32.7303 172.148 33.3289L175.148 43.9307H172.308L169.558 34.0047H167.288V43.9307H164.358V22.7774ZM168.358 31.8561C169.322 31.9501 170.285 31.6766 171.058 31.0894C171.372 30.7143 171.607 30.2782 171.748 29.8081C171.889 29.338 171.933 28.8437 171.878 28.3558C171.898 27.6714 171.8 26.9887 171.588 26.3383C171.502 26.0984 171.369 25.8784 171.198 25.6913C171.026 25.5042 170.819 25.3537 170.588 25.2488C169.939 24.9802 169.239 24.8596 168.538 24.8958H167.248V31.8964L168.358 31.8561Z" fill="#444444"/>
<path d="M178.679 42.3672C177.723 40.7397 177.28 38.8576 177.409 36.9704V29.9092C177.374 28.5466 177.543 27.1864 177.909 25.8742C178.198 24.8877 178.811 24.0302 179.649 23.4432C180.66 22.8286 181.83 22.5335 183.009 22.5958C183.771 22.5227 184.54 22.6184 185.262 22.8763C185.984 23.1341 186.642 23.5479 187.189 24.0888C188.148 25.4446 188.602 27.0989 188.469 28.7592V29.5461H185.719V28.8904C185.738 28.1062 185.677 27.322 185.539 26.5501C185.448 26.0554 185.177 25.6129 184.779 25.3093C184.26 25.0003 183.66 24.8562 183.059 24.8958C182.406 24.8394 181.756 25.042 181.249 25.4607C180.834 25.8576 180.563 26.3832 180.479 26.9536C180.352 27.7845 180.295 28.6248 180.309 29.4654V37.3235C180.229 38.5176 180.432 39.7136 180.899 40.8137C181.17 41.152 181.515 41.4233 181.906 41.6067C182.297 41.7902 182.725 41.881 183.156 41.8723C183.587 41.8635 184.011 41.7554 184.394 41.5562C184.778 41.357 185.111 41.072 185.369 40.7229C185.851 39.5595 186.059 38.2993 185.979 37.041V35.5481H183.319V33.46H188.619V43.9307H186.809L186.519 41.4997C186.29 42.3073 185.796 43.013 185.119 43.502C184.442 43.991 183.621 44.2346 182.789 44.193C182.007 44.2626 181.22 44.1317 180.501 43.8125C179.783 43.4933 179.156 42.9961 178.679 42.3672Z" fill="#444444"/>
<path d="M194.699 36.466L190.169 22.7774H192.889L196.099 32.9859L199.259 22.7774H202.009L197.509 36.466V43.9307H194.709L194.699 36.466Z" fill="#444444"/>
</g>
<defs>
<clipPath id="clip0_2403_995">
<rect width="202" height="60" fill="white"/>
</clipPath>
</defs>
</svg>

<svg width="202" height="60" fill="none" xmlns="http://www.w3.org/2000/svg"><g clip-path="url(#a)"><path d="M59.88 24.21a25.8 25.8 0 0 0-8.05-10.55 25.5 25.5 0 0 0-25.29-3.4 25.64 25.64 0 0 0-10.51 8.04 25.95 25.95 0 0 0-3.55 25.48 25.82 25.82 0 0 0 7.9 10.67 25.5 25.5 0 0 0 12.13 5.27c-.58-2.11-1.17-4.44-1.69-6.91 1.51.99 3.1 1.85 4.76 2.57 0 0 .12 2.18.28 4.61 1.79.03 3.58-.13 5.33-.47a2.17 2.17 0 0 1 0-.77c.3-1.89 1.1-5.29 1.25-7.48a15.33 15.33 0 0 0 2.9-3.74l-.06.45c-.55 4.3-1.7 8.88-2.4 10.15-.23.42-.5.81-.83 1.16a25.55 25.55 0 0 0 16.96-13.38 26.04 26.04 0 0 0 .87-21.7Zm-1.47 3.82c-.44.44-1.35.73-1.5-.58-.15-1.31-.19-2.23-.19-2.23s-1.93-3.46-2.65-3.5c-.72-.04-5.83 3.5-7.18 5.04-1.17 1.3-1.4 1.21-1.4 3.5 0 1.73.22 8.24.1 13.23l-8.15 2.19a63.54 63.54 0 0 1-7.8 1.73l-1-5.88h-.14l-2.57-13.29s-3.8-1.45-5.2-1.84a3.73 3.73 0 0 0-4.01.63 5.11 5.11 0 0 0-1.73 3.89c.21.47.37.96.48 1.46.05.48-1.2.43-2 .43s-.92-1.45-.29-3.15A23.1 23.1 0 0 1 15 25.88a11.97 11.97 0 0 1 2.07-2.91s.14-.34 1.25-.24c1.11.1 7.28.43 7.28.43l.05-2.29c6.7-.93 13.47-1.38 20.24-1.35v1.85a22.36 22.36 0 0 1 8.14-2.02.9.9 0 0 1 .77.4c.34.42 2.41 3.02 2.65 3.4a28.3 28.3 0 0 1 1.83 3.02 6.32 6.32 0 0 1-.87 1.85v.01Z" fill="#FDC305"/><path d="m56.46 21.86 1 1.3a28.3 28.3 0 0 1 1.83 3.03 6.32 6.32 0 0 1-.86 1.8c-.44.43-1.35.72-1.5-.6-.15-1.3-.2-2.17-.2-2.17s-1.94-3.46-2.66-3.5c-.72-.04-5.83 3.5-7.18 5.04-1.17 1.3-1.4 1.21-1.4 3.5 0 1.52.17 6.71.13 11.33 1.81.2 4.47.7 5.27 1.9 0 0-.29-7.25 7.81-3.45 0 0 .28-9.88 11.46-7.35a43.78 43.78 0 0 0-13.7-10.83ZM45.93 19.52a92.02 92.02 0 0 0-1.4-16.68s-.15-1.3-.87-.24c-.6 1.28-1 2.64-1.2 4.04a70.28 70.28 0 0 0-12.82.34c-.82-2.77-2.22-4.03-2.89-3.7-.67.33-.75 3.3-.75 3.3l-.33 14.3c6.71-.94 13.49-1.4 20.26-1.36Z" fill="#F06351"/><path d="M45.35 47.53c.13-1.08.2-2.51.24-4.1l-8.15 2.2a63.53 63.53 0 0 1-7.8 1.78l1.11 5.04c0 .12 0 .23.07.34 1.51.99 3.1 1.85 4.76 2.57a42.35 42.35 0 0 0 6.88-4.17v.06a15.33 15.33 0 0 0 2.9-3.72Z" fill="#E55645"/><path d="M32 16.36c-.05-.1 1 .69 1.41.93.41.24.61.42.61.6 0 .17-.26.34-.62.34s-.92-.12-1-.26c-.08-.15.6 0 .94 0h.3c-.62-.46-1.17-1-1.64-1.6ZM39.5 16.47s-1 1.3-1.09 1.35c-.09.07-.17.35.2.3.4-.07.81-.16 1.21-.29.11-.06.07-.2-.12-.18-.19.02-.68.05-1 .11l.85-1.28s.03-.12-.05 0ZM36.36 22.64c.47-.21.85-.56 1.1-1.01.27-.67 0-.92-.45-1.01-.6-.11-1.23.01-1.75.34-.39.37-.34.74 0 1.01s.7.5 1.1.67Z" fill="#000"/><path d="M36 23.9c-.11.24-.27.44-.46.61-.28.23-.63.37-1 .39-.55.05-1.1-.1-1.54-.45a2 2 0 0 1-.53-.45 1 1 0 0 0-.36-.25s.75 4.14 2.57 4.8c1.82.67 2.16-.76 2.21-1.14a5.72 5.72 0 0 0-.82-3.27c0-.3-.02-.1-.07-.23Z" fill="#F06351"/><path d="M34.3 25.06a3.48 3.48 0 0 1-2.35-1.45.15.15 0 0 1 0-.2.14.14 0 0 1 .2 0 3.23 3.23 0 0 0 2.11 1.32 2.1 2.1 0 0 0 1.64-1l.14-.2.1.23s.38.76 1 .8c.62.04 1.06-.42 1.63-1.3a.14.14 0 0 1 .2-.04.15.15 0 0 1 .04.2c-.67 1-1.3 1.47-1.89 1.43A1.54 1.54 0 0 1 36 24.1a2.27 2.27 0 0 1-1.7.95Z" fill="#000"/><path d="M36.26 38.63c2.07 0 3.75-1.69 3.75-3.78a3.77 3.77 0 0 0-3.75-3.78 3.77 3.77 0 0 0-3.75 3.78 3.77 3.77 0 0 0 3.75 3.78Z" fill="#FDC305"/><path d="M41.23 31.78 38.1 33.1l1.15-5.68-7.5 9.84 3.13-1.32-1.15 5.7 7.5-9.86Zm-7.39 3.86L38 30.18l-.8 4.04 2-.83-4.2 5.47.81-4.04-1.97.82ZM32.44 34.16c.62 0 1.12-.51 1.12-1.13 0-.63-.5-1.13-1.12-1.13-.62 0-1.12.5-1.12 1.13 0 .62.5 1.13 1.12 1.13ZM38.96 38.25a.8.8 0 0 0 .8-.8.8.8 0 0 0-.8-.8.8.8 0 0 0-.79.8c0 .44.36.8.8.8ZM39.92 36.06a.35.35 0 0 0 0-.7c-.2 0-.35.15-.35.35 0 .2.16.35.35.35Z" fill="#111"/><path d="M45.88 21.34c-1.8 1.65-3.5 3.4-5.09 5.26a31.99 31.99 0 0 1-5.3 4.94c-.23-.53-1.64-1.53-1.64-1.53s-3.14-2.17-5.2-3.87a32.02 32.02 0 0 1-3.14-3.03l-2-.11a22.65 22.65 0 0 0 12 8.92c.86-.14 3.28-1.89 5.1-3.31a57.9 57.9 0 0 0 6-5.96c.49-.6.88-1.28 1.13-2.02-1.14.38-1.86.71-1.86.71Z" fill="#F06351"/><path d="m65.22 3.53-8.46 9.52-1.22-2L63.7 0l1.53 3.53ZM62.65 17.41l5.54-4.14-.78-3.78-5.4 4.85.64 3.07ZM59.92 49.8l6.13 3.2 3.01-2.35-6.69-2.78-2.45 1.93ZM1.95 6.02l3.07-3.39 9.29 9.08-1.22 2.3L1.95 6.02ZM7.38 16.42l-4.7-3.16-2.4 3.9 5.15 2.43 1.95-3.17ZM13.91 53 9.36 56.4l2.8 3.61 4.02-4.06-2.27-2.93Z" fill="#FDC305"/><path d="M25.93 28.24s-3.8-1.45-5.2-1.84a3.73 3.73 0 0 0-4 .63 5.11 5.11 0 0 0-1.74 3.89c.21.47.37.96.48 1.46.05.48-1.2.43-2 .43s-.92-1.45-.29-3.15A23.1 23.1 0 0 1 15 25.88c-5.45 2.87-15 9.49-15 9.49 2.73-.17 5.47-.09 8.19.24 5.25.53 5 4.7 5 4.7 1.85-.5 3.73-.88 5.63-1.11 2.12-.14 2.27 2.14 2.27 2.14l.53 3.9c.8-.89 1.7-1.68 2.65-2.39 1.24-1 2.8-1.47 4.38-1.31l-2.72-13.3Z" fill="#F06351"/><path d="M85.66 42.37a8.42 8.42 0 0 1-1.4-5.24v-7.56a8.55 8.55 0 0 1 1.38-5.29c.93-1.2 2.51-1.8 4.75-1.8 2.24.01 3.76.54 4.55 1.59a6.82 6.82 0 0 1 1.33 4.53v1.77h-4.14v-1.92c0-.51-.04-1.02-.13-1.52a1.7 1.7 0 0 0-.47-.95 1.56 1.56 0 0 0-1.15-.38 1.45 1.45 0 0 0-1.5.76c-.26.7-.37 1.46-.34 2.22v9.6c-.04.76.1 1.52.4 2.22a1.49 1.49 0 0 0 1.44.74 1.34 1.34 0 0 0 1.4-.75c.25-.71.35-1.46.31-2.2v-2.03h4.14v1.75A7.36 7.36 0 0 1 95 42.56c-.88 1.1-2.4 1.65-4.56 1.65-2.16 0-3.85-.6-4.78-1.84ZM101.92 22.78h4.73l4 21.18h-3.94l-.7-4.68h-3.33l-.8 4.65h-4l4.04-21.15Zm3.64 13.84-1.25-8.52-1.25 8.52h2.5ZM113.72 25.96h-3.23v-3.18h10.72v3.18H118v17.97h-4.3l.02-17.96Z" fill="#111"/><path d="M129.62 22.78h8.13v2.2h-5.2v6.99h4.22v2.09h-4.22v7.75h5.25v2.12h-8.18V22.78ZM140.16 22.78h2l6 14.05V22.78h2.44v21.18h-1.87l-6-14.44v14.41h-2.48l-.1-21.15ZM153.83 22.78h8.12v2.2h-5.2v6.99H161v2.09h-4.22v7.75H162v2.12h-8.18V22.78ZM164.36 22.78h4.22a6.96 6.96 0 0 1 4.67 1.32c1 .88 1.49 2.3 1.49 4.3 0 2.69-.87 4.33-2.6 4.93l3 10.6h-2.83L169.56 34h-2.27v9.93h-2.93V22.78Zm4 9.08c.96.09 1.92-.18 2.7-.77a3.61 3.61 0 0 0 .82-2.73 5.95 5.95 0 0 0-.3-2.02 1.92 1.92 0 0 0-1-1.1 4.72 4.72 0 0 0-2.04-.34h-1.3v7l1.12-.04ZM178.68 42.37a9.4 9.4 0 0 1-1.27-5.4v-7.06c-.04-1.36.13-2.72.5-4.04.29-.98.9-1.84 1.74-2.43a5.87 5.87 0 0 1 3.36-.84 5.22 5.22 0 0 1 4.18 1.49 7.1 7.1 0 0 1 1.28 4.67v.79h-2.75v-.66a11.7 11.7 0 0 0-.18-2.34c-.1-.5-.36-.94-.76-1.24a2.98 2.98 0 0 0-1.72-.41 2.5 2.5 0 0 0-1.81.56c-.42.4-.69.92-.77 1.5-.13.82-.19 1.66-.17 2.5v7.86c-.08 1.2.12 2.4.59 3.5a2.83 2.83 0 0 0 3.5.74c.38-.2.71-.49.97-.84.48-1.16.69-2.42.6-3.68v-1.5h-2.65v-2.08h5.3v10.47h-1.81l-.3-2.43a3.72 3.72 0 0 1-3.72 2.7 4.63 4.63 0 0 1-4.11-1.83ZM194.7 36.47l-4.53-13.7h2.72l3.2 10.22 3.17-10.21H202l-4.5 13.69v7.46h-2.8l-.01-7.46Z" fill="#444"/></g><defs><clipPath id="a"><path fill="#fff" d="M0 0h202v60H0z"/></clipPath></defs></svg>
